assets/images/sample-logo-dark.svg

<svg width="140" height="30" viewBox="0 0 140 30" fill="none" xmlns="http://www.w3.org/2000/svg">
<path d="M22.4191 13.3713C22.0401 13.7526 21.7498 14.2128 21.569 14.719C21.3882 15.2253 21.3213 15.7652 21.373 16.3003L21.355 16.2823C21.4082 16.9122 21.3232 17.546 21.1061 18.1397C20.889 18.7333 20.5451 19.2724 20.0982 19.7194C19.6512 20.1663 19.112 20.5104 18.5183 20.7274C17.9247 20.9445 17.2908 21.0295 16.661 20.9763L16.6791 20.9943C15.9257 20.9242 15.1689 21.0881 14.512 21.4638C13.8552 21.8395 13.3302 22.4086 13.0087 23.0936C12.6872 23.7786 12.5847 24.546 12.7153 25.2914C12.846 26.0367 13.2033 26.7236 13.7386 27.2584C14.2739 27.7932 14.9611 28.1499 15.7065 28.2798C16.452 28.4098 17.2193 28.3066 17.904 27.9845C18.5887 27.6623 19.1573 27.1369 19.5324 26.4797C19.9075 25.8225 20.0708 25.0657 20 24.3123L20.019 24.3303C19.9658 23.7005 20.0507 23.0666 20.2678 22.4729C20.4849 21.8793 20.829 21.3402 21.2759 20.8932C21.7229 20.4463 22.262 20.1022 22.8556 19.8852C23.4493 19.6681 24.0831 19.5831 24.713 19.6363L24.694 19.6183C25.3094 19.6736 25.929 19.5727 26.4951 19.3249C27.0611 19.0771 27.5554 18.6904 27.9322 18.2007C28.309 17.711 28.5563 17.134 28.6507 16.5234C28.7452 15.9127 28.6839 15.2881 28.4727 14.7073C28.2615 14.1266 27.9071 13.6086 27.4424 13.2013C26.9777 12.794 26.4178 12.5106 25.8144 12.3774C25.211 12.2442 24.5837 12.2654 23.9907 12.4391C23.3977 12.6129 22.8582 12.9335 22.4221 13.3713H22.4191Z" fill="#0A0A0A"/>
<path d="M15.0422 18.6362L15.0232 18.6182C15.5585 18.6721 16.0991 18.6064 16.606 18.4258C17.1128 18.2452 17.5732 17.9543 17.9538 17.574C18.3343 17.1937 18.6257 16.7335 18.8066 16.2268C18.9876 15.7201 19.0537 15.1796 19.0002 14.6442L19.0192 14.6622C18.966 14.0323 19.051 13.3985 19.268 12.8048C19.4851 12.2112 19.8292 11.6721 20.2761 11.2251C20.7231 10.7782 21.2622 10.4341 21.8558 10.2171C22.4495 10 23.0833 9.91507 23.7132 9.96824L23.6942 9.95024C24.4477 10.021 25.2046 9.8576 25.8618 9.48234C26.5191 9.10708 27.0445 8.53821 27.3665 7.85334C27.6885 7.16848 27.7914 6.40095 27.6612 5.65544C27.531 4.90993 27.174 4.22275 26.6388 3.68761C26.1037 3.15248 25.4165 2.79544 24.671 2.66522C23.9255 2.53499 23.158 2.6379 22.4731 2.95992C21.7882 3.28193 21.2194 3.80738 20.8441 4.46459C20.4688 5.12179 20.3054 5.87876 20.3762 6.63224L20.3582 6.61324C20.4115 7.24313 20.3267 7.87707 20.1097 8.47079C19.8927 9.06451 19.5486 9.6037 19.1017 10.0507C18.6547 10.4976 18.1155 10.8417 17.5218 11.0587C16.928 11.2757 16.2941 11.3605 15.6642 11.3072L15.6822 11.3262C15.1469 11.2723 14.6062 11.338 14.0994 11.5186C13.5926 11.6991 13.1322 11.9901 12.7516 12.3704C12.371 12.7507 12.0797 13.2109 11.8987 13.7176C11.7178 14.2243 11.6517 14.7648 11.7052 15.3002L11.6872 15.2822C11.7402 15.912 11.6551 16.5458 11.438 17.1394C11.2208 17.7329 10.8768 18.272 10.4299 18.7189C9.98291 19.1658 9.44387 19.5098 8.85031 19.727C8.25675 19.9441 7.62296 20.0292 6.99315 19.9762L7.01115 19.9942C6.25767 19.9234 5.5007 20.0868 4.84349 20.4621C4.18629 20.8374 3.66084 21.4062 3.33883 22.0911C3.01681 22.776 2.91389 23.5435 3.04412 24.289C3.17435 25.0345 3.53139 25.7217 4.06652 26.2568C4.60166 26.792 5.28884 27.149 6.03435 27.2792C6.77986 27.4094 7.54739 27.3065 8.23226 26.9845C8.91712 26.6625 9.48599 26.1371 9.86125 25.4799C10.2366 24.8226 10.4 24.0657 10.3292 23.3122L10.3482 23.3302C10.295 22.7003 10.38 22.0665 10.5971 21.4728C10.8141 20.8792 11.1582 20.3401 11.6051 19.8931C12.0521 19.4462 12.5912 19.1021 13.1848 18.8851C13.7785 18.668 14.4123 18.583 15.0422 18.6362Z" fill="#0A0A0A"/>
<path d="M8.34021 16.6289C8.71923 16.2477 9.00941 15.7875 9.19005 15.2812C9.37069 14.7749 9.43733 14.2349 9.38521 13.6999L9.4042 13.7179C9.351 13.0879 9.43596 12.4538 9.65317 11.86C9.87038 11.2662 10.2146 10.727 10.6618 10.28C11.109 9.83306 11.6483 9.48907 12.2422 9.27212C12.8361 9.05516 13.4702 8.97046 14.1002 9.02394L14.0812 9.00594C14.8344 9.07651 15.5911 8.91302 16.248 8.53778C16.9049 8.16255 17.43 7.59382 17.7519 6.90917C18.0737 6.22451 18.1765 5.45726 18.0463 4.71203C17.9161 3.9668 17.5591 3.27988 17.0242 2.74494C16.4893 2.21 15.8023 1.85308 15.0571 1.72286C14.3119 1.59263 13.5446 1.69545 12.86 2.01727C12.1753 2.33909 11.6066 2.86426 11.2314 3.52116C10.8561 4.17806 10.6926 4.93472 10.7632 5.68794L10.7452 5.66994C10.7984 6.29979 10.7134 6.93366 10.4963 7.5273C10.2792 8.12094 9.93523 8.66005 9.48827 9.10701C9.04132 9.55397 8.5022 9.898 7.90856 10.115C7.31492 10.3321 6.68106 10.4171 6.05121 10.3639L6.06921 10.3819C5.45378 10.3267 4.83437 10.4278 4.26839 10.6757C3.70241 10.9236 3.20816 11.3104 2.83145 11.8002C2.45474 12.2899 2.20776 12.8669 2.11338 13.4775C2.01901 14.0882 2.0803 14.7128 2.29157 15.2934C2.50284 15.8741 2.85727 16.392 3.322 16.7992C3.78673 17.2065 4.34673 17.4898 4.95011 17.623C5.55348 17.7561 6.18071 17.7348 6.77368 17.5611C7.36664 17.3873 7.90614 17.0667 8.3422 16.6289H8.34021Z" fill="#0A0A0A"/>
<path d="M39.3174 6.65527H42.2874V21.1083H39.3174V6.65527Z" fill="#0A0A0A"/>
<path d="M43.9689 16.1586C43.9648 15.12 44.269 14.1034 44.843 13.2378C45.417 12.3722 46.235 11.6964 47.1934 11.2961C48.1518 10.8957 49.2074 10.7888 50.2266 10.9889C51.2458 11.189 52.1827 11.687 52.9186 12.42C53.6545 13.1529 54.1563 14.0878 54.3605 15.1062C54.5647 16.1246 54.462 17.1807 54.0655 18.1407C53.669 19.1006 52.9965 19.9214 52.1332 20.4988C51.2698 21.0763 50.2546 21.3846 49.2159 21.3846C48.5265 21.3925 47.8424 21.2628 47.2036 21.0032C46.5648 20.7436 45.9842 20.3593 45.4957 19.8728C45.0071 19.3862 44.6205 18.8071 44.3584 18.1694C44.0962 17.5317 43.9638 16.8481 43.9689 16.1586ZM51.4929 16.1586C51.4805 15.7109 51.3364 15.2768 51.0787 14.9105C50.8209 14.5443 50.4609 14.2621 50.0437 14.0994C49.6264 13.9366 49.1705 13.9004 48.7328 13.9954C48.2951 14.0904 47.8951 14.3122 47.5828 14.6333C47.2706 14.9543 47.0598 15.3603 46.9771 15.8005C46.8943 16.2406 46.943 16.6954 47.1173 17.108C47.2916 17.5206 47.5836 17.8726 47.9568 18.1201C48.3301 18.3676 48.7681 18.4996 49.2159 18.4996C49.5226 18.5078 49.8277 18.4523 50.112 18.3367C50.3962 18.2211 50.6534 18.0479 50.8673 17.828C51.0812 17.608 51.2473 17.3461 51.3549 17.0588C51.4626 16.7715 51.5096 16.465 51.4929 16.1586Z" fill="#0A0A0A"/>
<path d="M66.2999 11.2088V20.6088C66.2999 23.9348 63.7059 25.3408 61.0729 25.3408C60.1459 25.4102 59.2176 25.2229 58.3899 24.7996C57.5623 24.3762 56.8672 23.7331 56.3809 22.9408L58.9149 21.4758C59.1193 21.8888 59.445 22.2295 59.8483 22.4524C60.2517 22.6752 60.7135 22.7696 61.1719 22.7228C61.4649 22.7634 61.7633 22.7376 62.045 22.6473C62.3266 22.557 62.5844 22.4045 62.7992 22.2012C63.014 21.9978 63.1803 21.7488 63.2859 21.4724C63.3914 21.1961 63.4334 20.8996 63.4089 20.6048V19.6998C63.0611 20.1253 62.6185 20.4634 62.1164 20.6869C61.6143 20.9104 61.0669 21.0131 60.5179 20.9868C59.2117 20.9456 57.9728 20.3978 57.0634 19.4592C56.154 18.5207 55.6455 17.2651 55.6455 15.9583C55.6455 14.6515 56.154 13.3959 57.0634 12.4574C57.9728 11.5188 59.2117 10.971 60.5179 10.9298C61.0669 10.9035 61.6143 11.0062 62.1164 11.2297C62.6185 11.4532 63.0611 11.7913 63.4089 12.2168V11.2068L66.2999 11.2088ZM63.4099 15.9598C63.4299 15.4812 63.3061 15.0075 63.0546 14.5998C62.8031 14.192 62.4353 13.8689 61.9986 13.672C61.5619 13.475 61.0763 13.4133 60.6042 13.4947C60.1321 13.5761 59.6952 13.7969 59.3496 14.1288C59.0041 14.4606 58.7658 14.8882 58.6653 15.3566C58.5649 15.825 58.6069 16.3128 58.7861 16.7571C58.9652 17.2014 59.2732 17.582 59.6704 17.8498C60.0676 18.1176 60.5359 18.2604 61.0149 18.2598C61.327 18.2816 61.6401 18.2378 61.9342 18.1312C62.2283 18.0246 62.4968 17.8575 62.7224 17.6409C62.948 17.4242 63.1258 17.1627 63.2442 16.8731C63.3626 16.5836 63.4191 16.2725 63.4099 15.9598Z" fill="#0A0A0A"/>
<path d="M67.9816 16.1586C67.9775 15.12 68.2816 14.1034 68.8557 13.2378C69.4297 12.3722 70.2477 11.6964 71.2061 11.2961C72.1645 10.8957 73.2201 10.7888 74.2393 10.9889C75.2585 11.189 76.1954 11.687 76.9313 12.42C77.6672 13.1529 78.169 14.0878 78.3732 15.1062C78.5774 16.1246 78.4747 17.1807 78.0782 18.1407C77.6817 19.1006 77.0092 19.9214 76.1459 20.4988C75.2825 21.0763 74.2673 21.3846 73.2286 21.3846C72.5392 21.3925 71.855 21.2628 71.2163 21.0032C70.5775 20.7436 69.9969 20.3593 69.5084 19.8728C69.0198 19.3862 68.6332 18.8071 68.3711 18.1694C68.1089 17.5317 67.9765 16.8481 67.9816 16.1586ZM75.5056 16.1586C75.4932 15.7109 75.3491 15.2768 75.0914 14.9105C74.8336 14.5443 74.4736 14.2621 74.0564 14.0994C73.6391 13.9366 73.1831 13.9004 72.7455 13.9954C72.3078 14.0904 71.9078 14.3122 71.5955 14.6333C71.2833 14.9543 71.0725 15.3603 70.9897 15.8005C70.9069 16.2406 70.9557 16.6954 71.13 17.108C71.3043 17.5206 71.5963 17.8726 71.9695 18.1201C72.3428 18.3676 72.7807 18.4996 73.2286 18.4996C73.5353 18.5078 73.8404 18.4523 74.1246 18.3367C74.4089 18.2211 74.6661 18.0479 74.88 17.828C75.0939 17.608 75.26 17.3461 75.3676 17.0588C75.4753 16.7715 75.5223 16.465 75.5056 16.1586Z" fill="#0A0A0A"/>
<path d="M79.8613 8.55642C79.8613 8.20397 79.9658 7.85944 80.1616 7.5664C80.3574 7.27335 80.6358 7.04494 80.9614 6.91007C81.287 6.77519 81.6453 6.7399 81.991 6.80866C82.3366 6.87742 82.6542 7.04714 82.9034 7.29636C83.1526 7.54557 83.3223 7.86309 83.3911 8.20877C83.4598 8.55444 83.4245 8.91274 83.2897 9.23836C83.1548 9.56398 82.9264 9.84229 82.6333 10.0381C82.3403 10.2339 81.9958 10.3384 81.6433 10.3384C81.1722 10.3337 80.7216 10.1445 80.3884 9.8113C80.0553 9.47812 79.866 9.02758 79.8613 8.55642ZM80.1613 11.2094H83.1323V21.1094H80.1573L80.1613 11.2094Z" fill="#0A0A0A"/>
<path d="M95.9557 16.1593C95.99 16.8136 95.8947 17.4682 95.6751 18.0855C95.4556 18.7028 95.1162 19.2706 94.6764 19.7563C94.2367 20.2419 93.7052 20.6359 93.1127 20.9155C92.5201 21.195 91.8782 21.3547 91.2237 21.3853C90.6733 21.4153 90.1232 21.3225 89.6131 21.1136C89.103 20.9046 88.6459 20.5848 88.2747 20.1773V25.0683H85.3047V11.2093H88.2747V12.1393C88.646 11.7321 89.1033 11.4125 89.6133 11.2038C90.1234 10.995 90.6734 10.9023 91.2237 10.9323C91.8783 10.9628 92.5204 11.1224 93.1131 11.402C93.7058 11.6816 94.2373 12.0756 94.6771 12.5614C95.1169 13.0472 95.4563 13.6152 95.6757 14.2327C95.8951 14.8501 95.9903 15.5049 95.9557 16.1593ZM92.9857 16.1593C92.9741 15.696 92.8261 15.2464 92.5602 14.8667C92.2943 14.4871 91.9224 14.1943 91.491 14.0251C91.0595 13.8558 90.5877 13.8175 90.1346 13.9151C89.6815 14.0126 89.2673 14.2416 88.9437 14.5734C88.6201 14.9053 88.4016 15.3251 88.3155 15.7806C88.2294 16.236 88.2795 16.7066 88.4596 17.1337C88.6396 17.5608 88.9417 17.9252 89.3279 18.1815C89.7141 18.4377 90.1672 18.5744 90.6307 18.5743C90.9489 18.5885 91.2665 18.5352 91.5627 18.418C91.8588 18.3009 92.1269 18.1224 92.3492 17.8944C92.5716 17.6663 92.7432 17.3939 92.8529 17.0949C92.9626 16.7959 93.0079 16.477 92.9857 16.1593Z" fill="#0A0A0A"/>
<path d="M105.121 18.1379C105.121 20.4149 103.142 21.3849 101.004 21.3849C100.14 21.4631 99.2728 21.2805 98.5139 20.8604C97.755 20.4404 97.1396 19.8024 96.7471 19.0289L99.3201 17.5639C99.4242 17.9214 99.6478 18.2325 99.9535 18.445C100.259 18.6576 100.629 18.7589 101 18.7319C101.712 18.7319 102.069 18.5139 102.069 18.1189C102.069 17.0289 97.1981 17.6039 97.1981 14.1789C97.1981 12.0199 99.0201 10.9319 101.079 10.9319C101.853 10.9074 102.619 11.091 103.298 11.4635C103.977 11.8361 104.544 12.3839 104.939 13.0499L102.405 14.4159C102.294 14.1566 102.109 13.9357 101.873 13.7808C101.637 13.6259 101.361 13.5439 101.079 13.5449C100.564 13.5449 100.247 13.7449 100.247 14.0989C100.251 15.2279 105.121 14.4749 105.121 18.1379Z" fill="#0A0A0A"/>
<path d="M115.97 11.209V21.109H113V20.178C112.657 20.5888 112.222 20.9125 111.73 21.1225C111.238 21.3325 110.704 21.4228 110.17 21.386C108.17 21.386 106.47 19.961 106.47 17.286V11.209H109.44V16.851C109.415 17.0868 109.442 17.3252 109.519 17.5495C109.595 17.7739 109.72 17.9789 109.884 18.1502C110.048 18.3215 110.247 18.455 110.468 18.5415C110.688 18.628 110.925 18.6654 111.162 18.651C112.251 18.651 113.003 18.018 113.003 16.612V11.212L115.97 11.209Z" fill="#0A0A0A"/>
<path d="M133 15.0297V21.1077H130.03V15.2867C130.03 14.2967 129.555 13.6637 128.605 13.6637C127.615 13.6637 127.06 14.3567 127.06 15.5247V21.1077H124.091V15.2867C124.091 14.2967 123.616 13.6637 122.665 13.6637C121.675 13.6637 121.121 14.3567 121.121 15.5247V21.1077H118.151V11.2077H121.121V12.1177C121.429 11.714 121.833 11.3938 122.296 11.1865C122.76 10.9791 123.268 10.8912 123.774 10.9307C124.282 10.9058 124.788 11.0131 125.243 11.242C125.697 11.4708 126.084 11.8136 126.367 12.2367C126.696 11.794 127.132 11.442 127.634 11.2136C128.136 10.9852 128.688 10.8879 129.238 10.9307C131.511 10.9317 133 12.5547 133 15.0297Z" fill="#0A0A0A"/>
<path d="M135.512 11.1482C136.729 11.1482 137.716 10.1614 137.716 8.94423C137.716 7.72699 136.729 6.74023 135.512 6.74023C134.295 6.74023 133.308 7.72699 133.308 8.94423C133.308 10.1614 134.295 11.1482 135.512 11.1482Z" fill="#0A0A0A"/>
</svg>

<svg width="140" height="30" fill="none" xmlns="http://www.w3.org/2000/svg"><path d="M22.42 13.371a3.656 3.656 0 0 0-1.047 2.93l-.018-.019a4.344 4.344 0 0 1-4.694 4.694l.018.018A3.679 3.679 0 1 0 20 24.312l.019.018a4.344 4.344 0 0 1 4.694-4.694l-.019-.018a3.672 3.672 0 0 0 1.12-7.24 3.672 3.672 0 0 0-3.392.993h-.003Z" fill="#0A0A0A"/><path d="m15.042 18.636-.019-.018A3.632 3.632 0 0 0 19 14.644l.02.018a4.345 4.345 0 0 1 4.693-4.694l-.019-.018a3.678 3.678 0 1 0-3.318-3.318l-.018-.019a4.344 4.344 0 0 1-4.694 4.694l.018.02a3.632 3.632 0 0 0-3.977 3.973l-.018-.018a4.346 4.346 0 0 1-4.694 4.694l.018.018a3.677 3.677 0 1 0 3.318 3.318l.02.018a4.344 4.344 0 0 1 4.693-4.694Z" fill="#0A0A0A"/><path d="M8.34 16.629a3.652 3.652 0 0 0 1.045-2.93l.02.019A4.344 4.344 0 0 1 14.1 9.024l-.019-.018a3.677 3.677 0 1 0-3.318-3.318l-.018-.018a4.343 4.343 0 0 1-4.694 4.694l.018.018a3.671 3.671 0 1 0 2.273 6.247H8.34ZM39.317 6.655h2.97v14.453h-2.97V6.655ZM43.969 16.159a5.248 5.248 0 1 1 5.247 5.226 5.187 5.187 0 0 1-5.247-5.226Zm7.524 0a2.279 2.279 0 1 0-2.277 2.34 2.221 2.221 0 0 0 2.277-2.34ZM66.3 11.209v9.4c0 3.326-2.594 4.732-5.227 4.732a5.063 5.063 0 0 1-4.692-2.4l2.534-1.465a2.263 2.263 0 0 0 2.257 1.247 1.973 1.973 0 0 0 2.237-2.118V19.7a3.516 3.516 0 0 1-2.891 1.287 5.03 5.03 0 0 1 0-10.057 3.517 3.517 0 0 1 2.89 1.287v-1.01l2.892.002Zm-2.89 4.75a2.4 2.4 0 1 0-2.395 2.3 2.24 2.24 0 0 0 2.395-2.3ZM67.982 16.159a5.247 5.247 0 1 1 5.247 5.226 5.187 5.187 0 0 1-5.247-5.226Zm7.524 0a2.279 2.279 0 1 0-2.277 2.34 2.22 2.22 0 0 0 2.277-2.34ZM79.861 8.556a1.782 1.782 0 1 1 1.782 1.782 1.8 1.8 0 0 1-1.782-1.782Zm.3 2.653h2.971v9.9h-2.975l.004-9.9ZM95.956 16.16a4.97 4.97 0 0 1-4.732 5.225 3.716 3.716 0 0 1-2.95-1.208v4.891h-2.97V11.21h2.97v.93a3.717 3.717 0 0 1 2.95-1.207 4.97 4.97 0 0 1 4.732 5.227Zm-2.97 0a2.356 2.356 0 1 0-2.355 2.414 2.26 2.26 0 0 0 2.355-2.415ZM105.121 18.138c0 2.277-1.979 3.247-4.117 3.247a4.334 4.334 0 0 1-4.257-2.356l2.573-1.465a1.627 1.627 0 0 0 1.68 1.168c.712 0 1.069-.218 1.069-.613 0-1.09-4.87-.515-4.87-3.94 0-2.16 1.821-3.247 3.88-3.247a4.328 4.328 0 0 1 3.86 2.118l-2.534 1.366a1.435 1.435 0 0 0-1.326-.871c-.515 0-.832.2-.832.554.004 1.129 4.874.376 4.874 4.039ZM115.97 11.209v9.9H113v-.931a3.386 3.386 0 0 1-2.83 1.208c-2 0-3.7-1.425-3.7-4.1v-6.077h2.97v5.642a1.624 1.624 0 0 0 .444 1.3 1.631 1.631 0 0 0 1.278.5c1.089 0 1.841-.633 1.841-2.039v-5.4l2.967-.003ZM133 15.03v6.078h-2.97v-5.821c0-.99-.475-1.623-1.425-1.623-.99 0-1.545.693-1.545 1.86v5.584h-2.969v-5.821c0-.99-.475-1.623-1.426-1.623-.99 0-1.544.693-1.544 1.86v5.584h-2.97v-9.9h2.97v.91a3.042 3.042 0 0 1 2.653-1.187 2.948 2.948 0 0 1 2.593 1.306 3.261 3.261 0 0 1 2.871-1.306c2.273 0 3.762 1.624 3.762 4.099ZM135.512 11.148a2.204 2.204 0 1 0 0-4.408 2.204 2.204 0 0 0 0 4.408Z" fill="#0A0A0A"/></svg>
